X: 13
T: Northumberland
T: for three
C: 
C: 
P: AAA B CCC D E FF G
N: Permission granted to copy within the SCA.
K: F major
M: 6/8
L: 1/8
P: A (3x)
"^Drone: C"F2F G2G | A2A A2F | E3 D3 | E3 D3 | F2E F2G | A2A A2A | D3 G2F | \
M: 9/8
GA2 G6 "^(3)":| 
M: 2/4
P: B
D2 C2 | D2 C2 |: \
K: C major
M: 6/8
P: C (3x)
F3 G3 | A3 A2A | GFG4 "^(3)":| \
M: 2/4
P: D
D2 C2 | D2 C2 | 
M: 6/8
P: E
F3 G3 | A3 A2A | GFG4 |: \
M: 2/4
P: F
F2 G2 | E2 F2 | G2 G2 | \
M: 3/4
D2G4 :| \
M: 6/8
P: G
c2_B AG2 | F6 |] 

